X: 23
T: Grasshopper Sittin on a Sweet Potato Vine
R: reel
B: PC1 p.94
S: Fiddle Hell Online 2021-10-13 Portland Collection Jam handout
Z: 2022 John Chambers <jc:trillian.mit.edu>
M: C|
L: 1/8
K: D
% = = = = = = = = = =
"^A"|:\
"D"ABAG FGAd | fafe d4 | "G"BdBA GABA | dAB2 "D"A4 |
"D"ABAG FGAd | fafe d4 | "A"cdcB ABcA | "D"d3e d4 :|
"^B"|:\
"A"efed cdef | aefe "D"d4 | "G"BdBA GABA | dAB2 "D"A4 |
"A"efed cdef | aefe "D"d4 | "A"cdcB ABcA | "D"d3e d4 :|


